X:101
T: Der schwatzhafte Junggeselle
N: Q2139P
O: Mitteleuropa, Frankreich, Savoie
N: Franzoesische Fassung der Ballade. Zweistimmig notiert, Unter- bzw.
N: Mittelstimme kodiert. Notenwert in der letzten Zeile rhythmisch
N: korrigiert.
R: Ballade, Indiskretion, verweigerter Beischlaf
M: 2/4
L: 1/16
K: G
D2 | G3FG2A2 | B6A2 | d3cB2A2 | A4G2
D2 | G3FG2A2 | B6A2 | d3cB2A2 | A4G2
d2 | d4d2c2 | B6B2 | d2d2c2B2 | A4z2
D2 | G3FG2A2 | B2B2c4 | B3cB3A | G6

@@@ Tune index: 1599
